svg/furkot/icomoon/unlocked.svg

<svg viewBox="0 0 512 512" xmlns="http://www.w3.org/2000/svg"><path d="m384 32c52.936 0 96 43.064 96 96v96h-64v-96c0-17.648-14.352-32-32-32h-64c-17.648 0-32 14.352-32 32v96h8c13.2 0 24 10.8 24 24v240c0 13.2-10.8 24-24 24h-272c-13.2 0-24-10.8-24-24v-240c0-13.2 10.8-24 24-24h200v-96c0-52.936 43.064-96 96-96z"/></svg>

<svg xmlns="http://www.w3.org/2000/svg" viewBox="0 0 512 512"><path d="M384 32C436.936 32 480 75.064 480 128V224H416V128C416 110.352 401.648 96 384 96H320C302.352 96 288 110.352 288 128V224H296C309.2 224 320 234.8 320 248V488C320 501.2 309.2 512 296 512H24C10.8 512 0 501.2 0 488V248C0 234.8 10.8 224 24 224H224V128C224 75.064 267.064 32 320 32H384Z"/></svg>
